X: 1
T: Polkette fr\aan L\"ovstabruk #2
C: Trad.
R: polka
S: http://www.nyckelharpa.org/archive/written-music/american-allspel-list/ 2022/10/19
Z: 2022 John Chambers <jc:trillian.mit.edu>
M: 2/4
L: 1/16
Q: 1/4=120
K: F
"^A"[|] cB |\
A2C2 A2BA | G2C2 E2GA | B2C2 B2cB | A2C2 F2cB |
A2C2 A2BA | G2C2 E2GA | (BA)Bd (cd)cA |[M:3/4] F2A2 F6 :|
[M:2/4] "^B"|: FE |\
D2B,2 D2ED | C2A,2 C2FE | D2B,2 D2ED | C2A,2 C2CF |
A2A2 (Ac)BA | G2C2 E2GA | (BA)Bd (cd)cA |[M:3/4] F2A2 F6 :|
